img/memberpress-payments.svg

<svg clip-rule="evenodd" fill-rule="evenodd" stroke-linejoin="round" stroke-miterlimit="2" viewBox="0 0 640 512" xmlns="http://www.w3.org/2000/svg"><path d="m621.16 54.46c-38.79-16.27-77.61-22.46-116.41-22.46-123.17-.01-246.33 62.34-369.5 62.34-30.89 0-61.76-3.92-92.65-13.72-3.47-1.1-6.95-1.62-10.35-1.62-17.21 0-32.25 13.32-32.25 31.81v317.26c0 12.63 7.23 24.6 18.84 29.46 38.79 16.28 77.61 22.47 116.41 22.47 123.17 0 246.34-62.35 369.51-62.35 30.89 0 61.76 3.92 92.65 13.72 3.47 1.1 6.95 1.62 10.35 1.62 17.21 0 32.25-13.32 32.25-31.81v-317.25c-.01-12.64-7.24-24.6-18.85-29.47zm-573.16 77.76c20.12 5.04 41.12 7.57 62.72 8.93-5.88 29.39-31.72 51.54-62.72 51.54zm0 285v-47.78c34.37 0 62.18 27.27 63.71 61.4-22.53-1.81-43.59-6.31-63.71-13.62zm272-65.22c-44.19 0-80-42.99-80-96 0-53.02 35.82-96 80-96s80 42.98 80 96c0 53.03-35.83 96-80 96zm272 27.78c-17.52-4.39-35.71-6.85-54.32-8.44 5.87-26.08 27.5-45.88 54.32-49.28zm0-236.11c-30.89-3.91-54.86-29.7-55.81-61.55 19.54 2.17 38.09 6.23 55.81 12.66z" fill="#fff" fill-rule="nonzero"/></svg>

<?xml version="1.0" encoding="UTF-8" standalone="no"?>
<!DOCTYPE svg PUBLIC "-//W3C//DTD SVG 1.1//EN" "http://www.w3.org/Graphics/SVG/1.1/DTD/svg11.dtd">
<svg width="100%" height="100%" viewBox="0 0 640 512" version="1.1" xmlns="http://www.w3.org/2000/svg" xmlns:xlink="http://www.w3.org/1999/xlink" xml:space="preserve" xmlns:serif="http://www.serif.com/" style="fill-rule:evenodd;clip-rule:evenodd;stroke-linejoin:round;stroke-miterlimit:2;">
    <path d="M621.16,54.46C582.37,38.19 543.55,32 504.75,32C381.58,31.99 258.42,94.34 135.25,94.34C104.36,94.34 73.49,90.42 42.6,80.62C39.13,79.52 35.65,79 32.25,79C15.04,79 0,92.32 0,110.81L0,428.07C0,440.7 7.23,452.67 18.84,457.53C57.63,473.81 96.45,480 135.25,480C258.42,480 381.59,417.65 504.76,417.65C535.65,417.65 566.52,421.57 597.41,431.37C600.88,432.47 604.36,432.99 607.76,432.99C624.97,432.99 640.01,419.67 640.01,401.18L640.01,83.93C640,71.29 632.77,59.33 621.16,54.46ZM48,132.22C68.12,137.26 89.12,139.79 110.72,141.15C104.84,170.54 79,192.69 48,192.69L48,132.22ZM48,417.22L48,369.44C82.37,369.44 110.18,396.71 111.71,430.84C89.18,429.03 68.12,424.53 48,417.22ZM320,352C275.81,352 240,309.01 240,256C240,202.98 275.82,160 320,160C364.18,160 400,202.98 400,256C400,309.03 364.17,352 320,352ZM592,379.78C574.48,375.39 556.29,372.93 537.68,371.34C543.55,345.26 565.18,325.46 592,322.06L592,379.78ZM592,143.67C561.11,139.76 537.14,113.97 536.19,82.12C555.73,84.29 574.28,88.35 592,94.78L592,143.67Z" style="fill:white;fill-rule:nonzero;"/>
</svg>
